public/images/hashed/739238e1aa38df5d8b338de83de553d0.svg

<?xml version="1.0" encoding="UTF-8"?>
<svg width="80px" height="80px" viewBox="0 0 80 80" version="1.1" xmlns="http://www.w3.org/2000/svg" xmlns:xlink="http://www.w3.org/1999/xlink">
    <!-- Generator: Sketch 64 (93537) - https://sketch.com -->
    <title>Icon-Architecture/64/Arch_Amazon-Timestream_64</title>
    <desc>Created with Sketch.</desc>
    <defs>
        <linearGradient x1="0%" y1="100%" x2="100%" y2="0%" id="linearGradient-1">
            <stop stop-color="#2E27AD" offset="0%"></stop>
            <stop stop-color="#527FFF" offset="100%"></stop>
        </linearGradient>
    </defs>
    <g id="Icon-Architecture/64/Arch_Amazon-Timestream_64" stroke="none" stroke-width="1" fill="none" fill-rule="evenodd">
        <g id="Icon-Architecture-BG/64/Database" fill="url(#linearGradient-1)">
            <rect id="Rectangle" x="0" y="0" width="80" height="80"></rect>
        </g>
        <path d="M60.919449,52.293 L62.202236,51 L56.249628,51 L54.6761552,49.414 L51.6998512,52.414 L43.0616248,43.707 L44.4644561,42.293 L51.6998512,49.586 L54.6761552,46.586 L57.0710879,49 L62.202236,49 L60.919449,47.707 L62.3222803,46.293 L66,50 L62.3222803,53.707 L60.919449,52.293 Z M51.6998512,36.586 L53.2733239,35 L56.4113405,35 L59.382684,38.332 L57.9064372,39.668 L55.5273782,37 L54.0947838,37 L51.6998512,39.414 L49.3049185,37 L43.7630404,37 L43.7630404,35 L50.1263784,35 L51.6998512,36.586 Z M62.202236,36 L60.6287633,36 L60.6287633,34 L65.58927,34 L65.58927,39 L63.6050673,39 L63.6050673,37.414 L61.0394933,40 L63.6050673,42.586 L63.6050673,41 L65.58927,41 L65.58927,46 L60.6287633,46 L60.6287633,44 L62.202236,44 L59.636662,41.414 L57.0710879,44 L51.1184798,44 L49.4249628,45.707 L48.0221315,44.293 L50.2970199,42 L56.249628,42 L62.202236,36 Z M43.0616248,49.293 L45.0458275,47.293 L46.4486588,48.707 L44.4644561,50.707 L43.0616248,49.293 Z M32.8499256,14 C42.789789,14 49.7156485,17.162 49.7156485,20 C49.7156485,22.838 42.789789,26 32.8499256,26 C22.9100622,26 15.9842027,22.838 15.9842027,20 C15.9842027,17.162 22.9100622,14 32.8499256,14 L32.8499256,14 Z M42.7709391,33 L40.7867364,33 L40.7867364,55 C40.7867364,55.552 41.2302057,56 41.7788377,56 L49.7156485,56 L49.7156485,60 C49.7156485,62.838 42.789789,66 32.8499256,66 C23.2265425,66 15.9842027,62.521 15.9842027,60.265 L15.9842027,52.674 C19.0170565,55.284 25.267295,57 32.8499256,57 C35.3143053,57 37.7082459,56.811 39.9623001,56.437 L39.6408593,54.463 C37.4919678,54.819 35.2071584,55 32.8499256,55 C22.9100622,55 15.9842027,51.838 15.9842027,49 L15.9842027,38.674 C19.0170565,41.284 25.267295,43 32.8499256,43 C35.3143053,43 37.7082459,42.811 39.9623001,42.437 L39.6408593,40.463 C37.4919678,40.819 35.2071584,41 32.8499256,41 C22.9100622,41 15.9842027,37.838 15.9842027,35 L15.9842027,23.674 C19.0170565,26.284 25.267295,28 32.8499256,28 C40.4325562,28 46.6827947,26.284 49.7156485,23.674 L49.7156485,34 L51.6998512,34 L51.6998512,20 C51.6998512,15.439 43.5963674,12 32.8499256,12 C22.1034838,12 14,15.439 14,20 L14,60.265 C14,64.385 22.8088679,68 32.8499256,68 C43.5963674,68 51.6998512,64.561 51.6998512,60 L51.6998512,56 L65.58927,56 L65.58927,54 L42.7709391,54 L42.7709391,33 Z" id="Amazon-Timestream_Icon_64_Squid" fill="#FFFFFF"></path>
    </g>
</svg>

<svg xmlns="http://www.w3.org/2000/svg" width="80" height="80"><defs><linearGradient id="a" x1="0%" x2="100%" y1="100%" y2="0%"><stop offset="0%" stop-color="#2E27AD"/><stop offset="100%" stop-color="#527FFF"/></linearGradient></defs><g fill="none" fill-rule="evenodd"><path fill="url(#a)" d="M0 0h80v80H0z"/><path fill="#FFF" d="M60.92 52.293 62.201 51H56.25l-1.574-1.586-2.976 3-8.638-8.707 1.402-1.414 7.236 7.293 2.976-3L57.071 49h5.131l-1.283-1.293 1.403-1.414L66 50l-3.678 3.707-1.403-1.414ZM51.7 36.586 53.273 35h3.138l2.972 3.332-1.477 1.336L55.527 37h-1.432L51.7 39.414 49.305 37h-5.542v-2h6.363l1.574 1.586ZM62.202 36H60.63v-2h4.96v5h-1.984v-1.586L61.04 40l2.566 2.586V41h1.984v5h-4.96v-2h1.573l-2.565-2.586L57.07 44h-5.953l-1.693 1.707-1.403-1.414L50.297 42h5.953l5.952-6Zm-19.14 13.293 1.984-2 1.403 1.414-1.985 2-1.402-1.414ZM32.85 14c9.94 0 16.866 3.162 16.866 6s-6.926 6-16.866 6-16.866-3.162-16.866-6 6.926-6 16.866-6Zm9.92 19h-1.983v22c0 .552.443 1 .992 1h7.937v4c0 2.838-6.926 6-16.866 6-9.623 0-16.866-3.479-16.866-5.735v-7.591C19.017 55.284 25.267 57 32.85 57c2.464 0 4.858-.189 7.112-.563l-.321-1.974A41.712 41.712 0 0 1 32.85 55c-9.94 0-16.866-3.162-16.866-6V38.674C19.017 41.284 25.267 43 32.85 43c2.464 0 4.858-.189 7.112-.563l-.321-1.974A41.712 41.712 0 0 1 32.85 41c-9.94 0-16.866-3.162-16.866-6V23.674C19.017 26.284 25.267 28 32.85 28s13.833-1.716 16.866-4.326V34H51.7V20c0-4.561-8.104-8-18.85-8C22.103 12 14 15.439 14 20v40.265C14 64.385 22.809 68 32.85 68c10.746 0 18.85-3.439 18.85-8v-4h13.89v-2H42.77V33Z"/></g></svg>
